/* XPM */
static char *_b4c62da21fa4031f48390e329ed29feJlMIYJ32bqpzMeU7[] = {
/* columns rows colors chars-per-pixel */
"512 512 4 1 ",
"  c #00000000",
". c red",
"X c blue",
"o c white",
/* pixels */
"                                                                                                                                                                                                                                                                                                                                                                                                                                                                                                                                ",
"                                                                                                                                                                                                                                                                                                                                                                                                                                                                                                                                ",
"                                                                                                                                                                                                                                                                                                                                                                                                                                                                                                                                ",
"                                                                                                                                                                                                                                                                                                                                                                                                                                                                                                                                ",
"                                                                                                                                                                                                                                                                                                                                                                                                                                                                                                                                ",
"                                                                                                                                                                                                                                                                                                                                                                                                                                                                                                                                ",
"                                                                                                                                                                                                                                                                                                                                                                                                                                                                                                                                ",
"                                                                                                                                                                                                                                                                                                                                                                                                                                                                                                                                ",
"                                                                                                                                                                                                                                                                                                                                                                                                                                                                                                                                ",
"                                                                                                                                                                                                                                                                                                                                                                                                                                                                                                                                ",
"                                                                                                                                                                                                                                                                                                                                                                                                                                                                                                                                ",
"                                                                                                                                                                                                                                                                                                                                                                                                                                                                                                                                ",
"                                                                                                                                                                                                                                                                                                                                                                                                                                                                                                                                ",
"                                                                                                                                                                                                                                                                                                                                                                                                                                                                                                                                ",
"                                                                                                                                                                                                                                                                                                                                                                                                                                                                                                                                ",
"                                                                                                                                                                                                                                                                                                                                                                                                                                                                                                                                ",
"                                                                                                                                                                                                                                                                                                                                                                                                                                                                                                                                ",
"                                                                                                                                                                                                                                                                                                                                                                                                                                                                                                                                ",
"                                                                                                                                                                                                                                                                                                                                                                                                                                                                                                                                ",
"                                                                                                                                                                                                                                                                                                                                                                                                                                                                                                                                ",
"                                                                                                                                                                                                                                                                                                                                                                                                                                                                                                                                ",
"                                                                                                                                                                                                                                                                                                                                                                                                                                                                                                                                ",
"                                                                                                                                                                                                                                                                                                                                                                                                                                                                                                                                ",
"                                                                                                                                                                                                                                                                                                                                                                                                                                                                                                                                ",
"                                                                                                                                                                                                                                                                                                                                                                                                                                                                                                                                ",
"                                                                                                                                                                                                                                                                                                                                                                                                                                                                                                                                ",
"                                                                                                                                                                                                                                                                                                                                                                                                                                                                                                                                ",
"                                                                                                                                                                                                                                                                                                                                                                                                                                                                                                                                ",
"                                                                                                                                                                                                                                                                                                                                                                                                                                                                                                                                ",
"                                                                                                                                                                                                                                                                                                                                                                                                                                                                                                                                ",
"                                                                                                                                                                                                                                                                                                                                                                                                                                                                                                                                ",
"                                                                                                                                                                                                                                                                                                                                                                                                                                                                                                                                ",
"                                                                                                                                                                                                ................................................................................................................................                                                                                                                                                                                                ",
"                                                                                                                                                                                                ................................................................................................................................                                                                                                                                                                                                ",
"                                                                                                                                                                                                ................................................................................................................................                                                                                                                                                                                                ",
"                                                                                                                                                                                                ................................................................................................................................                                                                                                                                                                                                ",
"                                                                                                                                                                                                ................................................................................................................................                                                                                                                                                                                                ",
"                                                                                                                                                                                                ................................................................................................................................                                                                                                                                                                                                ",
"                                                                                                                                                                                                ................................................................................................................................                                                                                                                                                                                                ",
"                                                                                                                                                                                                ................................................................................................................................                                                                                                                                                                                                ",
"                                                                                                                                                                                                ................................................................................................................................                                                                                                                                                                                                ",
"                                                                                                                                                                                                ................................................................................................................................                                                                                                                                                                                                ",
"                                                                                                                                                                                                ................................................................................................................................                                                                                                                                                                                                ",
"                                                                                                                                                                                                ................................................................................................................................                                                                                                                                                                                                ",
"                                                                                                                                                                                                ................................................................................................................................                                                                                                                                                                                                ",
"                                                                                                                                                                                                ................................................................................................................................                                                                                                                                                                                                ",
"                                                                                                                                                                                                ................................................................................................................................                                                                                                                                                                                                ",
"                                                                                                                                                                                                ................................................................................................................................                                                                                                                                                                                                ",
"                                                                                                                                                                                                ................................................................................................................................                                                                                                                                                                                                ",
"                                                                                                                                                                                                ................................................................................................................................                                                                                                                                                                                                ",
"                                                                                                                                                                                                ................................................................................................................................                                                                                                                                                                                                ",
"                                                                                                                                                                                                ................................................................................................................................                                                                                                                                                                                                ",
"                                                                                                                                                                                                ................................................................................................................................                                                                                                                                                                                                ",
"                                                                                                                                                                                                ................................................................................................................................                                                                                                                                                                                                ",
"                                                                                                                                                                                                ................................................................................................................................                                                                                                                                                                                                ",
"                                                                                                                                                                                                ................................................................................................................................                                                                                                                                                                                                ",
"                                                                                                                                                                                                ................................................................................................................................                                                                                                                                                                                                ",
"                                                                                                                                                                                                ................................................................................................................................                                                                                                                                                                                                ",
"                                                                                                                                                                                                ................................................................................................................................                                                                                                                                                                                                ",
"                                                                                                                                                                                                ................................................................................................................................                                                                                                                                                                                                ",
"                                                                                                                                                                                                ................................................................................................................................                                                                                                                                                                                                ",
"                                                                                                                                                                                                ................................................................................................................................                                                                                                                                                                                                ",
"                                                                                                                                                                                                ................................................................................................................................                                                                                                                                                                                                ",
"                                                                                                                                                                                                ................................................................................................................................                                                                                                                                                                                                ",
"                                                                                                                                ................................................................................................................................................................................................................................................................                                                                                                                                ",
"                                                                                                                                ................................................................................................................................................................................................................................................................                                                                                                                                ",
"                                                                                                                                ................................................................................................................................................................................................................................................................                                                                                                                                ",
"                                                                                                                                ................................................................................................................................................................................................................................................................                                                                                                                                ",
"                                                                                                                                ................................................................................................................................................................................................................................................................                                                                                                                                ",
"                                                                                                                                ................................................................................................................................................................................................................................................................                                                                                                                                ",
"                                                                                                                                ................................................................................................................................................................................................................................................................                                                                                                                                ",
"                                                                                                                                ................................................................................................................................................................................................................................................................                                                                                                                                ",
"                                                                                                                                ................................................................................................................................................................................................................................................................                                                                                                                                ",
"                                                                                                                                ................................................................................................................................................................................................................................................................                                                                                                                                ",
"                                                                                                                                ................................................................................................................................................................................................................................................................                                                                                                                                ",
"                                                                                                                                ................................................................................................................................................................................................................................................................                                                                                                                                ",
"                                                                                                                                ................................................................................................................................................................................................................................................................                                                                                                                                ",
"                                                                                                                                ................................................................................................................................................................................................................................................................                                                                                                                                ",
"                                                                                                                                ................................................................................................................................................................................................................................................................                                                                                                                                ",
"                                                                                                                                ................................................................................................................................................................................................................................................................                                                                                                                                ",
"                                                                                                                                ................................................................................................................................................................................................................................................................                                                                                                                                ",
"                                                                                                                                ................................................................................................................................................................................................................................................................                                                                                                                                ",
"                                                                                                                                ................................................................................................................................................................................................................................................................                                                                                                                                ",
"                                                                                                                                ................................................................................................................................................................................................................................................................                                                                                                                                ",
"                                                                                                                                ................................................................................................................................................................................................................................................................                                                                                                                                ",
"                                                                                                                                ................................................................................................................................................................................................................................................................                                                                                                                                ",
"                                                                                                                                ................................................................................................................................................................................................................................................................                                                                                                                                ",
"                                                                                                                                ................................................................................................................................................................................................................................................................                                                                                                                                ",
"                                                                                                                                ................................................................................................................................................................................................................................................................                                                                                                                                ",
"                                                                                                                                ................................................................................................................................................................................................................................................................                                                                                                                                ",
"                                                                                                                                ................................................................................................................................................................................................................................................................                                                                                                                                ",
"                                                                                                                                ................................................................................................................................................................................................................................................................                                                                                                                                ",
"                                                                                                                                ................................................................................................................................................................................................................................................................                                                                                                                                ",
"                                                                                                                                ................................................................................................................................................................................................................................................................                                                                                                                                ",
"                                                                                                                                ................................................................................................................................................................................................................................................................                                                                                                                                ",
"                                                                                                                                ................................................................................................................................................................................................................................................................                                                                                                                                ",
"                                                                                                ................................................................................................................................................................................................................................................................................................................................                                                                                                ",
"                                                                                                ................................................................................................................................................................................................................................................................................................................................                                                                                                ",
"                                                                                                ................................................................................................................................................................................................................................................................................................................................                                                                                                ",
"                                                                                                ................................................................................................................................................................................................................................................................................................................................                                                                                                ",
"                                                                                                ................................................................................................................................................................................................................................................................................................................................                                                                                                ",
"                                                                                                ................................................................................................................................................................................................................................................................................................................................                                                                                                ",
"                                                                                                ................................................................................................................................................................................................................................................................................................................................                                                                                                ",
"                                                                                                ................................................................................................................................................................................................................................................................................................................................                                                                                                ",
"                                                                                                ................................................................................................................................................................................................................................................................................................................................                                                                                                ",
"                                                                                                ................................................................................................................................................................................................................................................................................................................................                                                                                                ",
"                                                                                                ................................................................................................................................................................................................................................................................................................................................                                                                                                ",
"                                                                                                ................................................................................................................................................................................................................................................................................................................................                                                                                                ",
"                                                                                                ................................................................................................................................................................................................................................................................................................................................                                                                                                ",
"                                                                                                ................................................................................................................................................................................................................................................................................................................................                                                                                                ",
"                                                                                                ................................................................................................................................................................................................................................................................................................................................                                                                                                ",
"                                                                                                ................................................................................................................................................................................................................................................................................................................................                                                                                                ",
"                                                                                                ................................................................................................................................................................................................................................................................................................................................                                                                                                ",
"                                                                                                ................................................................................................................................................................................................................................................................................................................................                                                                                                ",
"                                                                                                ................................................................................................................................................................................................................................................................................................................................                                                                                                ",
"                                                                                                ................................................................................................................................................................................................................................................................................................................................                                                                                                ",
"                                                                                                ................................................................................................................................................................................................................................................................................................................................                                                                                                ",
"                                                                                                ................................................................................................................................................................................................................................................................................................................................                                                                                                ",
"                                                                                                ................................................................................................................................................................................................................................................................................................................................                                                                                                ",
"                                                                                                ................................................................................................................................................................................................................................................................................................................................                                                                                                ",
"                                                                                                ................................................................................................................................................................................................................................................................................................................................                                                                                                ",
"                                                                                                ................................................................................................................................................................................................................................................................................................................................                                                                                                ",
"                                                                                                ................................................................................................................................................................................................................................................................................................................................                                                                                                ",
"                                                                                                ................................................................................................................................................................................................................................................................................................................................                                                                                                ",
"                                                                                                ................................................................................................................................................................................................................................................................................................................................                                                                                                ",
"                                                                                                ................................................................................................................................................................................................................................................................................................................................                                                                                                ",
"                                                                                                ................................................................................................................................................................................................................................................................................................................................                                                                                                ",
"                                                                                                ................................................................................................................................................................................................................................................................................................................................                                                                                                ",
"                                                                ................................oooooooooooooooooooooooooooooooooooooooooooooooooooooooooooooooo................................................................................................................................oooooooooooooooooooooooooooooooooooooooooooooooooooooooooooooooo................................................................................................                                                                ",
"                                                                ................................oooooooooooooooooooooooooooooooooooooooooooooooooooooooooooooooo................................................................................................................................oooooooooooooooooooooooooooooooooooooooooooooooooooooooooooooooo................................................................................................                                                                ",
"                                                                ................................oooooooooooooooooooooooooooooooooooooooooooooooooooooooooooooooo................................................................................................................................oooooooooooooooooooooooooooooooooooooooooooooooooooooooooooooooo................................................................................................                                                                ",
"                                                                ................................oooooooooooooooooooooooooooooooooooooooooooooooooooooooooooooooo................................................................................................................................oooooooooooooooooooooooooooooooooooooooooooooooooooooooooooooooo................................................................................................                                                                ",
"                                                                ................................oooooooooooooooooooooooooooooooooooooooooooooooooooooooooooooooo................................................................................................................................oooooooooooooooooooooooooooooooooooooooooooooooooooooooooooooooo................................................................................................                                                                ",
"                                                                ................................oooooooooooooooooooooooooooooooooooooooooooooooooooooooooooooooo................................................................................................................................oooooooooooooooooooooooooooooooooooooooooooooooooooooooooooooooo................................................................................................                                                                ",
"                                                                ................................oooooooooooooooooooooooooooooooooooooooooooooooooooooooooooooooo................................................................................................................................oooooooooooooooooooooooooooooooooooooooooooooooooooooooooooooooo................................................................................................                                                                ",
"                                                                ................................oooooooooooooooooooooooooooooooooooooooooooooooooooooooooooooooo................................................................................................................................oooooooooooooooooooooooooooooooooooooooooooooooooooooooooooooooo................................................................................................                                                                ",
"                                                                ................................oooooooooooooooooooooooooooooooooooooooooooooooooooooooooooooooo................................................................................................................................oooooooooooooooooooooooooooooooooooooooooooooooooooooooooooooooo................................................................................................                                                                ",
"                                                                ................................oooooooooooooooooooooooooooooooooooooooooooooooooooooooooooooooo................................................................................................................................oooooooooooooooooooooooooooooooooooooooooooooooooooooooooooooooo................................................................................................                                                                ",
"                                                                ................................oooooooooooooooooooooooooooooooooooooooooooooooooooooooooooooooo................................................................................................................................oooooooooooooooooooooooooooooooooooooooooooooooooooooooooooooooo................................................................................................                                                                ",
"                                                                ................................oooooooooooooooooooooooooooooooooooooooooooooooooooooooooooooooo................................................................................................................................oooooooooooooooooooooooooooooooooooooooooooooooooooooooooooooooo................................................................................................                                                                ",
"                                                                ................................oooooooooooooooooooooooooooooooooooooooooooooooooooooooooooooooo................................................................................................................................oooooooooooooooooooooooooooooooooooooooooooooooooooooooooooooooo................................................................................................                                                                ",
"                                                                ................................oooooooooooooooooooooooooooooooooooooooooooooooooooooooooooooooo................................................................................................................................oooooooooooooooooooooooooooooooooooooooooooooooooooooooooooooooo................................................................................................                                                                ",
"                                                                ................................oooooooooooooooooooooooooooooooooooooooooooooooooooooooooooooooo................................................................................................................................oooooooooooooooooooooooooooooooooooooooooooooooooooooooooooooooo................................................................................................                                                                ",
"                                                                ................................oooooooooooooooooooooooooooooooooooooooooooooooooooooooooooooooo................................................................................................................................oooooooooooooooooooooooooooooooooooooooooooooooooooooooooooooooo................................................................................................                                                                ",
"                                                                ................................oooooooooooooooooooooooooooooooooooooooooooooooooooooooooooooooo................................................................................................................................oooooooooooooooooooooooooooooooooooooooooooooooooooooooooooooooo................................................................................................                                                                ",
"                                                                ................................oooooooooooooooooooooooooooooooooooooooooooooooooooooooooooooooo................................................................................................................................oooooooooooooooooooooooooooooooooooooooooooooooooooooooooooooooo................................................................................................                                                                ",
"                                                                ................................oooooooooooooooooooooooooooooooooooooooooooooooooooooooooooooooo................................................................................................................................oooooooooooooooooooooooooooooooooooooooooooooooooooooooooooooooo................................................................................................                                                                ",
"                                                                ................................oooooooooooooooooooooooooooooooooooooooooooooooooooooooooooooooo................................................................................................................................oooooooooooooooooooooooooooooooooooooooooooooooooooooooooooooooo................................................................................................                                                                ",
"                                                                ................................oooooooooooooooooooooooooooooooooooooooooooooooooooooooooooooooo................................................................................................................................oooooooooooooooooooooooooooooooooooooooooooooooooooooooooooooooo................................................................................................                                                                ",
"                                                                ................................oooooooooooooooooooooooooooooooooooooooooooooooooooooooooooooooo................................................................................................................................oooooooooooooooooooooooooooooooooooooooooooooooooooooooooooooooo................................................................................................                                                                ",
"                                                                ................................oooooooooooooooooooooooooooooooooooooooooooooooooooooooooooooooo................................................................................................................................oooooooooooooooooooooooooooooooooooooooooooooooooooooooooooooooo................................................................................................                                                                ",
"                                                                ................................oooooooooooooooooooooooooooooooooooooooooooooooooooooooooooooooo................................................................................................................................oooooooooooooooooooooooooooooooooooooooooooooooooooooooooooooooo................................................................................................                                                                ",
"                                                                ................................oooooooooooooooooooooooooooooooooooooooooooooooooooooooooooooooo................................................................................................................................oooooooooooooooooooooooooooooooooooooooooooooooooooooooooooooooo................................................................................................                                                                ",
"                                                                ................................oooooooooooooooooooooooooooooooooooooooooooooooooooooooooooooooo................................................................................................................................oooooooooooooooooooooooooooooooooooooooooooooooooooooooooooooooo................................................................................................                                                                ",
"                                                                ................................oooooooooooooooooooooooooooooooooooooooooooooooooooooooooooooooo................................................................................................................................oooooooooooooooooooooooooooooooooooooooooooooooooooooooooooooooo................................................................................................                                                                ",
"                                                                ................................oooooooooooooooooooooooooooooooooooooooooooooooooooooooooooooooo................................................................................................................................oooooooooooooooooooooooooooooooooooooooooooooooooooooooooooooooo................................................................................................                                                                ",
"                                                                ................................oooooooooooooooooooooooooooooooooooooooooooooooooooooooooooooooo................................................................................................................................oooooooooooooooooooooooooooooooooooooooooooooooooooooooooooooooo................................................................................................                                                                ",
"                                                                ................................oooooooooooooooooooooooooooooooooooooooooooooooooooooooooooooooo................................................................................................................................oooooooooooooooooooooooooooooooooooooooooooooooooooooooooooooooo................................................................................................                                                                ",
"                                                                ................................oooooooooooooooooooooooooooooooooooooooooooooooooooooooooooooooo................................................................................................................................oooooooooooooooooooooooooooooooooooooooooooooooooooooooooooooooo................................................................................................                                                                ",
"                                                                ................................oooooooooooooooooooooooooooooooooooooooooooooooooooooooooooooooo................................................................................................................................oooooooooooooooooooooooooooooooooooooooooooooooooooooooooooooooo................................................................................................                                                                ",
"                                                                oooooooooooooooooooooooooooooooooooooooooooooooooooooooooooooooooooooooooooooooooooooooooooooooooooooooooooooooooooooooooooooooo................................................................oooooooooooooooooooooooooooooooooooooooooooooooooooooooooooooooooooooooooooooooooooooooooooooooooooooooooooooooooooooooooooooooo................................................................                                                                ",
"                                                                oooooooooooooooooooooooooooooooooooooooooooooooooooooooooooooooooooooooooooooooooooooooooooooooooooooooooooooooooooooooooooooooo................................................................oooooooooooooooooooooooooooooooooooooooooooooooooooooooooooooooooooooooooooooooooooooooooooooooooooooooooooooooooooooooooooooooo................................................................                                                                ",
"                                                                oooooooooooooooooooooooooooooooooooooooooooooooooooooooooooooooooooooooooooooooooooooooooooooooooooooooooooooooooooooooooooooooo................................................................oooooooooooooooooooooooooooooooooooooooooooooooooooooooooooooooooooooooooooooooooooooooooooooooooooooooooooooooooooooooooooooooo................................................................                                                                ",
"                                                                oooooooooooooooooooooooooooooooooooooooooooooooooooooooooooooooooooooooooooooooooooooooooooooooooooooooooooooooooooooooooooooooo................................................................oooooooooooooooooooooooooooooooooooooooooooooooooooooooooooooooooooooooooooooooooooooooooooooooooooooooooooooooooooooooooooooooo................................................................                                                                ",
"                                                                oooooooooooooooooooooooooooooooooooooooooooooooooooooooooooooooooooooooooooooooooooooooooooooooooooooooooooooooooooooooooooooooo................................................................oooooooooooooooooooooooooooooooooooooooooooooooooooooooooooooooooooooooooooooooooooooooooooooooooooooooooooooooooooooooooooooooo................................................................                                                                ",
"                                                                oooooooooooooooooooooooooooooooooooooooooooooooooooooooooooooooooooooooooooooooooooooooooooooooooooooooooooooooooooooooooooooooo................................................................oooooooooooooooooooooooooooooooooooooooooooooooooooooooooooooooooooooooooooooooooooooooooooooooooooooooooooooooooooooooooooooooo................................................................                                                                ",
"                                                                oooooooooooooooooooooooooooooooooooooooooooooooooooooooooooooooooooooooooooooooooooooooooooooooooooooooooooooooooooooooooooooooo................................................................oooooooooooooooooooooooooooooooooooooooooooooooooooooooooooooooooooooooooooooooooooooooooooooooooooooooooooooooooooooooooooooooo................................................................                                                                ",
"                                                                oooooooooooooooooooooooooooooooooooooooooooooooooooooooooooooooooooooooooooooooooooooooooooooooooooooooooooooooooooooooooooooooo................................................................oooooooooooooooooooooooooooooooooooooooooooooooooooooooooooooooooooooooooooooooooooooooooooooooooooooooooooooooooooooooooooooooo................................................................                                                                ",
"                                                                oooooooooooooooooooooooooooooooooooooooooooooooooooooooooooooooooooooooooooooooooooooooooooooooooooooooooooooooooooooooooooooooo................................................................oooooooooooooooooooooooooooooooooooooooooooooooooooooooooooooooooooooooooooooooooooooooooooooooooooooooooooooooooooooooooooooooo................................................................                                                                ",
"                                                                oooooooooooooooooooooooooooooooooooooooooooooooooooooooooooooooooooooooooooooooooooooooooooooooooooooooooooooooooooooooooooooooo................................................................oooooooooooooooooooooooooooooooooooooooooooooooooooooooooooooooooooooooooooooooooooooooooooooooooooooooooooooooooooooooooooooooo................................................................                                                                ",
"                                                                oooooooooooooooooooooooooooooooooooooooooooooooooooooooooooooooooooooooooooooooooooooooooooooooooooooooooooooooooooooooooooooooo................................................................oooooooooooooooooooooooooooooooooooooooooooooooooooooooooooooooooooooooooooooooooooooooooooooooooooooooooooooooooooooooooooooooo................................................................                                                                ",
"                                                                oooooooooooooooooooooooooooooooooooooooooooooooooooooooooooooooooooooooooooooooooooooooooooooooooooooooooooooooooooooooooooooooo................................................................oooooooooooooooooooooooooooooooooooooooooooooooooooooooooooooooooooooooooooooooooooooooooooooooooooooooooooooooooooooooooooooooo................................................................                                                                ",
"                                                                oooooooooooooooooooooooooooooooooooooooooooooooooooooooooooooooooooooooooooooooooooooooooooooooooooooooooooooooooooooooooooooooo................................................................oooooooooooooooooooooooooooooooooooooooooooooooooooooooooooooooooooooooooooooooooooooooooooooooooooooooooooooooooooooooooooooooo................................................................                                                                ",
"                                                                oooooooooooooooooooooooooooooooooooooooooooooooooooooooooooooooooooooooooooooooooooooooooooooooooooooooooooooooooooooooooooooooo................................................................oooooooooooooooooooooooooooooooooooooooooooooooooooooooooooooooooooooooooooooooooooooooooooooooooooooooooooooooooooooooooooooooo................................................................                                                                ",
"                                                                oooooooooooooooooooooooooooooooooooooooooooooooooooooooooooooooooooooooooooooooooooooooooooooooooooooooooooooooooooooooooooooooo................................................................oooooooooooooooooooooooooooooooooooooooooooooooooooooooooooooooooooooooooooooooooooooooooooooooooooooooooooooooooooooooooooooooo................................................................                                                                ",
"                                                                oooooooooooooooooooooooooooooooooooooooooooooooooooooooooooooooooooooooooooooooooooooooooooooooooooooooooooooooooooooooooooooooo................................................................oooooooooooooooooooooooooooooooooooooooooooooooooooooooooooooooooooooooooooooooooooooooooooooooooooooooooooooooooooooooooooooooo................................................................                                                                ",
"                                                                oooooooooooooooooooooooooooooooooooooooooooooooooooooooooooooooooooooooooooooooooooooooooooooooooooooooooooooooooooooooooooooooo................................................................oooooooooooooooooooooooooooooooooooooooooooooooooooooooooooooooooooooooooooooooooooooooooooooooooooooooooooooooooooooooooooooooo................................................................                                                                ",
"                                                                oooooooooooooooooooooooooooooooooooooooooooooooooooooooooooooooooooooooooooooooooooooooooooooooooooooooooooooooooooooooooooooooo................................................................oooooooooooooooooooooooooooooooooooooooooooooooooooooooooooooooooooooooooooooooooooooooooooooooooooooooooooooooooooooooooooooooo................................................................                                                                ",
"                                                                oooooooooooooooooooooooooooooooooooooooooooooooooooooooooooooooooooooooooooooooooooooooooooooooooooooooooooooooooooooooooooooooo................................................................oooooooooooooooooooooooooooooooooooooooooooooooooooooooooooooooooooooooooooooooooooooooooooooooooooooooooooooooooooooooooooooooo................................................................                                                                ",
"                                                                oooooooooooooooooooooooooooooooooooooooooooooooooooooooooooooooooooooooooooooooooooooooooooooooooooooooooooooooooooooooooooooooo................................................................oooooooooooooooooooooooooooooooooooooooooooooooooooooooooooooooooooooooooooooooooooooooooooooooooooooooooooooooooooooooooooooooo................................................................                                                                ",
"                                                                oooooooooooooooooooooooooooooooooooooooooooooooooooooooooooooooooooooooooooooooooooooooooooooooooooooooooooooooooooooooooooooooo................................................................oooooooooooooooooooooooooooooooooooooooooooooooooooooooooooooooooooooooooooooooooooooooooooooooooooooooooooooooooooooooooooooooo................................................................                                                                ",
"                                                                oooooooooooooooooooooooooooooooooooooooooooooooooooooooooooooooooooooooooooooooooooooooooooooooooooooooooooooooooooooooooooooooo................................................................oooooooooooooooooooooooooooooooooooooooooooooooooooooooooooooooooooooooooooooooooooooooooooooooooooooooooooooooooooooooooooooooo................................................................                                                                ",
"                                                                oooooooooooooooooooooooooooooooooooooooooooooooooooooooooooooooooooooooooooooooooooooooooooooooooooooooooooooooooooooooooooooooo................................................................oooooooooooooooooooooooooooooooooooooooooooooooooooooooooooooooooooooooooooooooooooooooooooooooooooooooooooooooooooooooooooooooo................................................................                                                                ",
"                                                                oooooooooooooooooooooooooooooooooooooooooooooooooooooooooooooooooooooooooooooooooooooooooooooooooooooooooooooooooooooooooooooooo................................................................oooooooooooooooooooooooooooooooooooooooooooooooooooooooooooooooooooooooooooooooooooooooooooooooooooooooooooooooooooooooooooooooo................................................................                                                                ",
"                                                                oooooooooooooooooooooooooooooooooooooooooooooooooooooooooooooooooooooooooooooooooooooooooooooooooooooooooooooooooooooooooooooooo................................................................oooooooooooooooooooooooooooooooooooooooooooooooooooooooooooooooooooooooooooooooooooooooooooooooooooooooooooooooooooooooooooooooo................................................................                                                                ",
"                                                                oooooooooooooooooooooooooooooooooooooooooooooooooooooooooooooooooooooooooooooooooooooooooooooooooooooooooooooooooooooooooooooooo................................................................oooooooooooooooooooooooooooooooooooooooooooooooooooooooooooooooooooooooooooooooooooooooooooooooooooooooooooooooooooooooooooooooo................................................................                                                                ",
"                                                                oooooooooooooooooooooooooooooooooooooooooooooooooooooooooooooooooooooooooooooooooooooooooooooooooooooooooooooooooooooooooooooooo................................................................oooooooooooooooooooooooooooooooooooooooooooooooooooooooooooooooooooooooooooooooooooooooooooooooooooooooooooooooooooooooooooooooo................................................................                                                                ",
"                                                                oooooooooooooooooooooooooooooooooooooooooooooooooooooooooooooooooooooooooooooooooooooooooooooooooooooooooooooooooooooooooooooooo................................................................oooooooooooooooooooooooooooooooooooooooooooooooooooooooooooooooooooooooooooooooooooooooooooooooooooooooooooooooooooooooooooooooo................................................................                                                                ",
"                                                                oooooooooooooooooooooooooooooooooooooooooooooooooooooooooooooooooooooooooooooooooooooooooooooooooooooooooooooooooooooooooooooooo................................................................oooooooooooooooooooooooooooooooooooooooooooooooooooooooooooooooooooooooooooooooooooooooooooooooooooooooooooooooooooooooooooooooo................................................................                                                                ",
"                                                                oooooooooooooooooooooooooooooooooooooooooooooooooooooooooooooooooooooooooooooooooooooooooooooooooooooooooooooooooooooooooooooooo................................................................oooooooooooooooooooooooooooooooooooooooooooooooooooooooooooooooooooooooooooooooooooooooooooooooooooooooooooooooooooooooooooooooo................................................................                                                                ",
"                                                                oooooooooooooooooooooooooooooooooooooooooooooooooooooooooooooooooooooooooooooooooooooooooooooooooooooooooooooooooooooooooooooooo................................................................oooooooooooooooooooooooooooooooooooooooooooooooooooooooooooooooooooooooooooooooooooooooooooooooooooooooooooooooooooooooooooooooo................................................................                                                                ",
"                                                                oooooooooooooooooooooooooooooooooooooooooooooooooooooooooooooooooooooooooooooooooooooooooooooooooooooooooooooooooooooooooooooooo................................................................oooooooooooooooooooooooooooooooooooooooooooooooooooooooooooooooooooooooooooooooooooooooooooooooooooooooooooooooooooooooooooooooo................................................................                                                                ",
"                                                                XXXXXXXXXXXXXXXXXXXXXXXXXXXXXXXXXXXXXXXXXXXXXXXXXXXXXXXXXXXXXXXXoooooooooooooooooooooooooooooooooooooooooooooooooooooooooooooooo................................................................XXXXXXXXXXXXXXXXXXXXXXXXXXXXXXXXXXXXXXXXXXXXXXXXXXXXXXXXXXXXXXXXoooooooooooooooooooooooooooooooooooooooooooooooooooooooooooooooo................................................................                                                                ",
"                                                                XXXXXXXXXXXXXXXXXXXXXXXXXXXXXXXXXXXXXXXXXXXXXXXXXXXXXXXXXXXXXXXXoooooooooooooooooooooooooooooooooooooooooooooooooooooooooooooooo................................................................XXXXXXXXXXXXXXXXXXXXXXXXXXXXXXXXXXXXXXXXXXXXXXXXXXXXXXXXXXXXXXXXoooooooooooooooooooooooooooooooooooooooooooooooooooooooooooooooo................................................................                                                                ",
"                                                                XXXXXXXXXXXXXXXXXXXXXXXXXXXXXXXXXXXXXXXXXXXXXXXXXXXXXXXXXXXXXXXXoooooooooooooooooooooooooooooooooooooooooooooooooooooooooooooooo................................................................XXXXXXXXXXXXXXXXXXXXXXXXXXXXXXXXXXXXXXXXXXXXXXXXXXXXXXXXXXXXXXXXoooooooooooooooooooooooooooooooooooooooooooooooooooooooooooooooo................................................................                                                                ",
"                                                                XXXXXXXXXXXXXXXXXXXXXXXXXXXXXXXXXXXXXXXXXXXXXXXXXXXXXXXXXXXXXXXXoooooooooooooooooooooooooooooooooooooooooooooooooooooooooooooooo................................................................XXXXXXXXXXXXXXXXXXXXXXXXXXXXXXXXXXXXXXXXXXXXXXXXXXXXXXXXXXXXXXXXoooooooooooooooooooooooooooooooooooooooooooooooooooooooooooooooo................................................................                                                                ",
"                                                                XXXXXXXXXXXXXXXXXXXXXXXXXXXXXXXXXXXXXXXXXXXXXXXXXXXXXXXXXXXXXXXXoooooooooooooooooooooooooooooooooooooooooooooooooooooooooooooooo................................................................XXXXXXXXXXXXXXXXXXXXXXXXXXXXXXXXXXXXXXXXXXXXXXXXXXXXXXXXXXXXXXXXoooooooooooooooooooooooooooooooooooooooooooooooooooooooooooooooo................................................................                                                                ",
"                                                                XXXXXXXXXXXXXXXXXXXXXXXXXXXXXXXXXXXXXXXXXXXXXXXXXXXXXXXXXXXXXXXXoooooooooooooooooooooooooooooooooooooooooooooooooooooooooooooooo................................................................XXXXXXXXXXXXXXXXXXXXXXXXXXXXXXXXXXXXXXXXXXXXXXXXXXXXXXXXXXXXXXXXoooooooooooooooooooooooooooooooooooooooooooooooooooooooooooooooo................................................................                                                                ",
"                                                                XXXXXXXXXXXXXXXXXXXXXXXXXXXXXXXXXXXXXXXXXXXXXXXXXXXXXXXXXXXXXXXXoooooooooooooooooooooooooooooooooooooooooooooooooooooooooooooooo................................................................XXXXXXXXXXXXXXXXXXXXXXXXXXXXXXXXXXXXXXXXXXXXXXXXXXXXXXXXXXXXXXXXoooooooooooooooooooooooooooooooooooooooooooooooooooooooooooooooo................................................................                                                                ",
"                                                                XXXXXXXXXXXXXXXXXXXXXXXXXXXXXXXXXXXXXXXXXXXXXXXXXXXXXXXXXXXXXXXXoooooooooooooooooooooooooooooooooooooooooooooooooooooooooooooooo................................................................XXXXXXXXXXXXXXXXXXXXXXXXXXXXXXXXXXXXXXXXXXXXXXXXXXXXXXXXXXXXXXXXoooooooooooooooooooooooooooooooooooooooooooooooooooooooooooooooo................................................................                                                                ",
"                                                                XXXXXXXXXXXXXXXXXXXXXXXXXXXXXXXXXXXXXXXXXXXXXXXXXXXXXXXXXXXXXXXXoooooooooooooooooooooooooooooooooooooooooooooooooooooooooooooooo................................................................XXXXXXXXXXXXXXXXXXXXXXXXXXXXXXXXXXXXXXXXXXXXXXXXXXXXXXXXXXXXXXXXoooooooooooooooooooooooooooooooooooooooooooooooooooooooooooooooo................................................................                                                                ",
"                                                                XXXXXXXXXXXXXXXXXXXXXXXXXXXXXXXXXXXXXXXXXXXXXXXXXXXXXXXXXXXXXXXXoooooooooooooooooooooooooooooooooooooooooooooooooooooooooooooooo................................................................XXXXXXXXXXXXXXXXXXXXXXXXXXXXXXXXXXXXXXXXXXXXXXXXXXXXXXXXXXXXXXXXoooooooooooooooooooooooooooooooooooooooooooooooooooooooooooooooo................................................................                                                                ",
"                                                                XXXXXXXXXXXXXXXXXXXXXXXXXXXXXXXXXXXXXXXXXXXXXXXXXXXXXXXXXXXXXXXXoooooooooooooooooooooooooooooooooooooooooooooooooooooooooooooooo................................................................XXXXXXXXXXXXXXXXXXXXXXXXXXXXXXXXXXXXXXXXXXXXXXXXXXXXXXXXXXXXXXXXoooooooooooooooooooooooooooooooooooooooooooooooooooooooooooooooo................................................................                                                                ",
"                                                                XXXXXXXXXXXXXXXXXXXXXXXXXXXXXXXXXXXXXXXXXXXXXXXXXXXXXXXXXXXXXXXXoooooooooooooooooooooooooooooooooooooooooooooooooooooooooooooooo................................................................XXXXXXXXXXXXXXXXXXXXXXXXXXXXXXXXXXXXXXXXXXXXXXXXXXXXXXXXXXXXXXXXoooooooooooooooooooooooooooooooooooooooooooooooooooooooooooooooo................................................................                                                                ",
"                                                                XXXXXXXXXXXXXXXXXXXXXXXXXXXXXXXXXXXXXXXXXXXXXXXXXXXXXXXXXXXXXXXXoooooooooooooooooooooooooooooooooooooooooooooooooooooooooooooooo................................................................XXXXXXXXXXXXXXXXXXXXXXXXXXXXXXXXXXXXXXXXXXXXXXXXXXXXXXXXXXXXXXXXoooooooooooooooooooooooooooooooooooooooooooooooooooooooooooooooo................................................................                                                                ",
"                                                                XXXXXXXXXXXXXXXXXXXXXXXXXXXXXXXXXXXXXXXXXXXXXXXXXXXXXXXXXXXXXXXXoooooooooooooooooooooooooooooooooooooooooooooooooooooooooooooooo................................................................XXXXXXXXXXXXXXXXXXXXXXXXXXXXXXXXXXXXXXXXXXXXXXXXXXXXXXXXXXXXXXXXoooooooooooooooooooooooooooooooooooooooooooooooooooooooooooooooo................................................................                                                                ",
"                                                                XXXXXXXXXXXXXXXXXXXXXXXXXXXXXXXXXXXXXXXXXXXXXXXXXXXXXXXXXXXXXXXXoooooooooooooooooooooooooooooooooooooooooooooooooooooooooooooooo................................................................XXXXXXXXXXXXXXXXXXXXXXXXXXXXXXXXXXXXXXXXXXXXXXXXXXXXXXXXXXXXXXXXoooooooooooooooooooooooooooooooooooooooooooooooooooooooooooooooo................................................................                                                                ",
"                                                                XXXXXXXXXXXXXXXXXXXXXXXXXXXXXXXXXXXXXXXXXXXXXXXXXXXXXXXXXXXXXXXXoooooooooooooooooooooooooooooooooooooooooooooooooooooooooooooooo................................................................XXXXXXXXXXXXXXXXXXXXXXXXXXXXXXXXXXXXXXXXXXXXXXXXXXXXXXXXXXXXXXXXoooooooooooooooooooooooooooooooooooooooooooooooooooooooooooooooo................................................................                                                                ",
"                                                                XXXXXXXXXXXXXXXXXXXXXXXXXXXXXXXXXXXXXXXXXXXXXXXXXXXXXXXXXXXXXXXXoooooooooooooooooooooooooooooooooooooooooooooooooooooooooooooooo................................................................XXXXXXXXXXXXXXXXXXXXXXXXXXXXXXXXXXXXXXXXXXXXXXXXXXXXXXXXXXXXXXXXoooooooooooooooooooooooooooooooooooooooooooooooooooooooooooooooo................................................................                                                                ",
"                                                                XXXXXXXXXXXXXXXXXXXXXXXXXXXXXXXXXXXXXXXXXXXXXXXXXXXXXXXXXXXXXXXXoooooooooooooooooooooooooooooooooooooooooooooooooooooooooooooooo................................................................XXXXXXXXXXXXXXXXXXXXXXXXXXXXXXXXXXXXXXXXXXXXXXXXXXXXXXXXXXXXXXXXoooooooooooooooooooooooooooooooooooooooooooooooooooooooooooooooo................................................................                                                                ",
"                                                                XXXXXXXXXXXXXXXXXXXXXXXXXXXXXXXXXXXXXXXXXXXXXXXXXXXXXXXXXXXXXXXXoooooooooooooooooooooooooooooooooooooooooooooooooooooooooooooooo................................................................XXXXXXXXXXXXXXXXXXXXXXXXXXXXXXXXXXXXXXXXXXXXXXXXXXXXXXXXXXXXXXXXoooooooooooooooooooooooooooooooooooooooooooooooooooooooooooooooo................................................................                                                                ",
"                                                                XXXXXXXXXXXXXXXXXXXXXXXXXXXXXXXXXXXXXXXXXXXXXXXXXXXXXXXXXXXXXXXXoooooooooooooooooooooooooooooooooooooooooooooooooooooooooooooooo................................................................XXXXXXXXXXXXXXXXXXXXXXXXXXXXXXXXXXXXXXXXXXXXXXXXXXXXXXXXXXXXXXXXoooooooooooooooooooooooooooooooooooooooooooooooooooooooooooooooo................................................................                                                                ",
"                                                                XXXXXXXXXXXXXXXXXXXXXXXXXXXXXXXXXXXXXXXXXXXXXXXXXXXXXXXXXXXXXXXXoooooooooooooooooooooooooooooooooooooooooooooooooooooooooooooooo................................................................XXXXXXXXXXXXXXXXXXXXXXXXXXXXXXXXXXXXXXXXXXXXXXXXXXXXXXXXXXXXXXXXoooooooooooooooooooooooooooooooooooooooooooooooooooooooooooooooo................................................................                                                                ",
"                                                                XXXXXXXXXXXXXXXXXXXXXXXXXXXXXXXXXXXXXXXXXXXXXXXXXXXXXXXXXXXXXXXXoooooooooooooooooooooooooooooooooooooooooooooooooooooooooooooooo................................................................XXXXXXXXXXXXXXXXXXXXXXXXXXXXXXXXXXXXXXXXXXXXXXXXXXXXXXXXXXXXXXXXoooooooooooooooooooooooooooooooooooooooooooooooooooooooooooooooo................................................................                                                                ",
"                                                                XXXXXXXXXXXXXXXXXXXXXXXXXXXXXXXXXXXXXXXXXXXXXXXXXXXXXXXXXXXXXXXXoooooooooooooooooooooooooooooooooooooooooooooooooooooooooooooooo................................................................XXXXXXXXXXXXXXXXXXXXXXXXXXXXXXXXXXXXXXXXXXXXXXXXXXXXXXXXXXXXXXXXoooooooooooooooooooooooooooooooooooooooooooooooooooooooooooooooo................................................................                                                                ",
"                                                                XXXXXXXXXXXXXXXXXXXXXXXXXXXXXXXXXXXXXXXXXXXXXXXXXXXXXXXXXXXXXXXXoooooooooooooooooooooooooooooooooooooooooooooooooooooooooooooooo................................................................XXXXXXXXXXXXXXXXXXXXXXXXXXXXXXXXXXXXXXXXXXXXXXXXXXXXXXXXXXXXXXXXoooooooooooooooooooooooooooooooooooooooooooooooooooooooooooooooo................................................................                                                                ",
"                                                                XXXXXXXXXXXXXXXXXXXXXXXXXXXXXXXXXXXXXXXXXXXXXXXXXXXXXXXXXXXXXXXXoooooooooooooooooooooooooooooooooooooooooooooooooooooooooooooooo................................................................XXXXXXXXXXXXXXXXXXXXXXXXXXXXXXXXXXXXXXXXXXXXXXXXXXXXXXXXXXXXXXXXoooooooooooooooooooooooooooooooooooooooooooooooooooooooooooooooo................................................................                                                                ",
"                                                                XXXXXXXXXXXXXXXXXXXXXXXXXXXXXXXXXXXXXXXXXXXXXXXXXXXXXXXXXXXXXXXXoooooooooooooooooooooooooooooooooooooooooooooooooooooooooooooooo................................................................XXXXXXXXXXXXXXXXXXXXXXXXXXXXXXXXXXXXXXXXXXXXXXXXXXXXXXXXXXXXXXXXoooooooooooooooooooooooooooooooooooooooooooooooooooooooooooooooo................................................................                                                                ",
"                                                                XXXXXXXXXXXXXXXXXXXXXXXXXXXXXXXXXXXXXXXXXXXXXXXXXXXXXXXXXXXXXXXXoooooooooooooooooooooooooooooooooooooooooooooooooooooooooooooooo................................................................XXXXXXXXXXXXXXXXXXXXXXXXXXXXXXXXXXXXXXXXXXXXXXXXXXXXXXXXXXXXXXXXoooooooooooooooooooooooooooooooooooooooooooooooooooooooooooooooo................................................................                                                                ",
"                                                                XXXXXXXXXXXXXXXXXXXXXXXXXXXXXXXXXXXXXXXXXXXXXXXXXXXXXXXXXXXXXXXXoooooooooooooooooooooooooooooooooooooooooooooooooooooooooooooooo................................................................XXXXXXXXXXXXXXXXXXXXXXXXXXXXXXXXXXXXXXXXXXXXXXXXXXXXXXXXXXXXXXXXoooooooooooooooooooooooooooooooooooooooooooooooooooooooooooooooo................................................................                                                                ",
"                                                                XXXXXXXXXXXXXXXXXXXXXXXXXXXXXXXXXXXXXXXXXXXXXXXXXXXXXXXXXXXXXXXXoooooooooooooooooooooooooooooooooooooooooooooooooooooooooooooooo................................................................XXXXXXXXXXXXXXXXXXXXXXXXXXXXXXXXXXXXXXXXXXXXXXXXXXXXXXXXXXXXXXXXoooooooooooooooooooooooooooooooooooooooooooooooooooooooooooooooo................................................................                                                                ",
"                                                                XXXXXXXXXXXXXXXXXXXXXXXXXXXXXXXXXXXXXXXXXXXXXXXXXXXXXXXXXXXXXXXXoooooooooooooooooooooooooooooooooooooooooooooooooooooooooooooooo................................................................XXXXXXXXXXXXXXXXXXXXXXXXXXXXXXXXXXXXXXXXXXXXXXXXXXXXXXXXXXXXXXXXoooooooooooooooooooooooooooooooooooooooooooooooooooooooooooooooo................................................................                                                                ",
"                                                                XXXXXXXXXXXXXXXXXXXXXXXXXXXXXXXXXXXXXXXXXXXXXXXXXXXXXXXXXXXXXXXXoooooooooooooooooooooooooooooooooooooooooooooooooooooooooooooooo................................................................XXXXXXXXXXXXXXXXXXXXXXXXXXXXXXXXXXXXXXXXXXXXXXXXXXXXXXXXXXXXXXXXoooooooooooooooooooooooooooooooooooooooooooooooooooooooooooooooo................................................................                                                                ",
"                                                                XXXXXXXXXXXXXXXXXXXXXXXXXXXXXXXXXXXXXXXXXXXXXXXXXXXXXXXXXXXXXXXXoooooooooooooooooooooooooooooooooooooooooooooooooooooooooooooooo................................................................XXXXXXXXXXXXXXXXXXXXXXXXXXXXXXXXXXXXXXXXXXXXXXXXXXXXXXXXXXXXXXXXoooooooooooooooooooooooooooooooooooooooooooooooooooooooooooooooo................................................................                                                                ",
"                                ................................XXXXXXXXXXXXXXXXXXXXXXXXXXXXXXXXXXXXXXXXXXXXXXXXXXXXXXXXXXXXXXXXoooooooooooooooooooooooooooooooooooooooooooooooooooooooooooooooo................................................................XXXXXXXXXXXXXXXXXXXXXXXXXXXXXXXXXXXXXXXXXXXXXXXXXXXXXXXXXXXXXXXXoooooooooooooooooooooooooooooooooooooooooooooooooooooooooooooooo................................................................................................                                ",
"                                ................................XXXXXXXXXXXXXXXXXXXXXXXXXXXXXXXXXXXXXXXXXXXXXXXXXXXXXXXXXXXXXXXXoooooooooooooooooooooooooooooooooooooooooooooooooooooooooooooooo................................................................XXXXXXXXXXXXXXXXXXXXXXXXXXXXXXXXXXXXXXXXXXXXXXXXXXXXXXXXXXXXXXXXoooooooooooooooooooooooooooooooooooooooooooooooooooooooooooooooo................................................................................................                                ",
"                                ................................XXXXXXXXXXXXXXXXXXXXXXXXXXXXXXXXXXXXXXXXXXXXXXXXXXXXXXXXXXXXXXXXoooooooooooooooooooooooooooooooooooooooooooooooooooooooooooooooo................................................................XXXXXXXXXXXXXXXXXXXXXXXXXXXXXXXXXXXXXXXXXXXXXXXXXXXXXXXXXXXXXXXXoooooooooooooooooooooooooooooooooooooooooooooooooooooooooooooooo................................................................................................                                ",
"                                ................................XXXXXXXXXXXXXXXXXXXXXXXXXXXXXXXXXXXXXXXXXXXXXXXXXXXXXXXXXXXXXXXXoooooooooooooooooooooooooooooooooooooooooooooooooooooooooooooooo................................................................XXXXXXXXXXXXXXXXXXXXXXXXXXXXXXXXXXXXXXXXXXXXXXXXXXXXXXXXXXXXXXXXoooooooooooooooooooooooooooooooooooooooooooooooooooooooooooooooo................................................................................................                                ",
"                                ................................XXXXXXXXXXXXXXXXXXXXXXXXXXXXXXXXXXXXXXXXXXXXXXXXXXXXXXXXXXXXXXXXoooooooooooooooooooooooooooooooooooooooooooooooooooooooooooooooo................................................................XXXXXXXXXXXXXXXXXXXXXXXXXXXXXXXXXXXXXXXXXXXXXXXXXXXXXXXXXXXXXXXXoooooooooooooooooooooooooooooooooooooooooooooooooooooooooooooooo................................................................................................                                ",
"                                ................................XXXXXXXXXXXXXXXXXXXXXXXXXXXXXXXXXXXXXXXXXXXXXXXXXXXXXXXXXXXXXXXXoooooooooooooooooooooooooooooooooooooooooooooooooooooooooooooooo................................................................XXXXXXXXXXXXXXXXXXXXXXXXXXXXXXXXXXXXXXXXXXXXXXXXXXXXXXXXXXXXXXXXoooooooooooooooooooooooooooooooooooooooooooooooooooooooooooooooo................................................................................................                                ",
"                                ................................XXXXXXXXXXXXXXXXXXXXXXXXXXXXXXXXXXXXXXXXXXXXXXXXXXXXXXXXXXXXXXXXoooooooooooooooooooooooooooooooooooooooooooooooooooooooooooooooo................................................................XXXXXXXXXXXXXXXXXXXXXXXXXXXXXXXXXXXXXXXXXXXXXXXXXXXXXXXXXXXXXXXXoooooooooooooooooooooooooooooooooooooooooooooooooooooooooooooooo................................................................................................                                ",
"                                ................................XXXXXXXXXXXXXXXXXXXXXXXXXXXXXXXXXXXXXXXXXXXXXXXXXXXXXXXXXXXXXXXXoooooooooooooooooooooooooooooooooooooooooooooooooooooooooooooooo................................................................XXXXXXXXXXXXXXXXXXXXXXXXXXXXXXXXXXXXXXXXXXXXXXXXXXXXXXXXXXXXXXXXoooooooooooooooooooooooooooooooooooooooooooooooooooooooooooooooo................................................................................................                                ",
"                                ................................XXXXXXXXXXXXXXXXXXXXXXXXXXXXXXXXXXXXXXXXXXXXXXXXXXXXXXXXXXXXXXXXoooooooooooooooooooooooooooooooooooooooooooooooooooooooooooooooo................................................................XXXXXXXXXXXXXXXXXXXXXXXXXXXXXXXXXXXXXXXXXXXXXXXXXXXXXXXXXXXXXXXXoooooooooooooooooooooooooooooooooooooooooooooooooooooooooooooooo................................................................................................                                ",
"                                ................................XXXXXXXXXXXXXXXXXXXXXXXXXXXXXXXXXXXXXXXXXXXXXXXXXXXXXXXXXXXXXXXXoooooooooooooooooooooooooooooooooooooooooooooooooooooooooooooooo................................................................XXXXXXXXXXXXXXXXXXXXXXXXXXXXXXXXXXXXXXXXXXXXXXXXXXXXXXXXXXXXXXXXoooooooooooooooooooooooooooooooooooooooooooooooooooooooooooooooo................................................................................................                                ",
"                                ................................XXXXXXXXXXXXXXXXXXXXXXXXXXXXXXXXXXXXXXXXXXXXXXXXXXXXXXXXXXXXXXXXoooooooooooooooooooooooooooooooooooooooooooooooooooooooooooooooo................................................................XXXXXXXXXXXXXXXXXXXXXXXXXXXXXXXXXXXXXXXXXXXXXXXXXXXXXXXXXXXXXXXXoooooooooooooooooooooooooooooooooooooooooooooooooooooooooooooooo................................................................................................                                ",
"                                ................................XXXXXXXXXXXXXXXXXXXXXXXXXXXXXXXXXXXXXXXXXXXXXXXXXXXXXXXXXXXXXXXXoooooooooooooooooooooooooooooooooooooooooooooooooooooooooooooooo................................................................XXXXXXXXXXXXXXXXXXXXXXXXXXXXXXXXXXXXXXXXXXXXXXXXXXXXXXXXXXXXXXXXoooooooooooooooooooooooooooooooooooooooooooooooooooooooooooooooo................................................................................................                                ",
"                                ................................XXXXXXXXXXXXXXXXXXXXXXXXXXXXXXXXXXXXXXXXXXXXXXXXXXXXXXXXXXXXXXXXoooooooooooooooooooooooooooooooooooooooooooooooooooooooooooooooo................................................................XXXXXXXXXXXXXXXXXXXXXXXXXXXXXXXXXXXXXXXXXXXXXXXXXXXXXXXXXXXXXXXXoooooooooooooooooooooooooooooooooooooooooooooooooooooooooooooooo................................................................................................                                ",
"                                ................................XXXXXXXXXXXXXXXXXXXXXXXXXXXXXXXXXXXXXXXXXXXXXXXXXXXXXXXXXXXXXXXXoooooooooooooooooooooooooooooooooooooooooooooooooooooooooooooooo................................................................XXXXXXXXXXXXXXXXXXXXXXXXXXXXXXXXXXXXXXXXXXXXXXXXXXXXXXXXXXXXXXXXoooooooooooooooooooooooooooooooooooooooooooooooooooooooooooooooo................................................................................................                                ",
"                                ................................XXXXXXXXXXXXXXXXXXXXXXXXXXXXXXXXXXXXXXXXXXXXXXXXXXXXXXXXXXXXXXXXoooooooooooooooooooooooooooooooooooooooooooooooooooooooooooooooo................................................................XXXXXXXXXXXXXXXXXXXXXXXXXXXXXXXXXXXXXXXXXXXXXXXXXXXXXXXXXXXXXXXXoooooooooooooooooooooooooooooooooooooooooooooooooooooooooooooooo................................................................................................                                ",
"                                ................................XXXXXXXXXXXXXXXXXXXXXXXXXXXXXXXXXXXXXXXXXXXXXXXXXXXXXXXXXXXXXXXXoooooooooooooooooooooooooooooooooooooooooooooooooooooooooooooooo................................................................XXXXXXXXXXXXXXXXXXXXXXXXXXXXXXXXXXXXXXXXXXXXXXXXXXXXXXXXXXXXXXXXoooooooooooooooooooooooooooooooooooooooooooooooooooooooooooooooo................................................................................................                                ",
"                                ................................XXXXXXXXXXXXXXXXXXXXXXXXXXXXXXXXXXXXXXXXXXXXXXXXXXXXXXXXXXXXXXXXoooooooooooooooooooooooooooooooooooooooooooooooooooooooooooooooo................................................................XXXXXXXXXXXXXXXXXXXXXXXXXXXXXXXXXXXXXXXXXXXXXXXXXXXXXXXXXXXXXXXXoooooooooooooooooooooooooooooooooooooooooooooooooooooooooooooooo................................................................................................                                ",
"                                ................................XXXXXXXXXXXXXXXXXXXXXXXXXXXXXXXXXXXXXXXXXXXXXXXXXXXXXXXXXXXXXXXXoooooooooooooooooooooooooooooooooooooooooooooooooooooooooooooooo................................................................XXXXXXXXXXXXXXXXXXXXXXXXXXXXXXXXXXXXXXXXXXXXXXXXXXXXXXXXXXXXXXXXoooooooooooooooooooooooooooooooooooooooooooooooooooooooooooooooo................................................................................................                                ",
"                                ................................XXXXXXXXXXXXXXXXXXXXXXXXXXXXXXXXXXXXXXXXXXXXXXXXXXXXXXXXXXXXXXXXoooooooooooooooooooooooooooooooooooooooooooooooooooooooooooooooo................................................................XXXXXXXXXXXXXXXXXXXXXXXXXXXXXXXXXXXXXXXXXXXXXXXXXXXXXXXXXXXXXXXXoooooooooooooooooooooooooooooooooooooooooooooooooooooooooooooooo................................................................................................                                ",
"                                ................................XXXXXXXXXXXXXXXXXXXXXXXXXXXXXXXXXXXXXXXXXXXXXXXXXXXXXXXXXXXXXXXXoooooooooooooooooooooooooooooooooooooooooooooooooooooooooooooooo................................................................XXXXXXXXXXXXXXXXXXXXXXXXXXXXXXXXXXXXXXXXXXXXXXXXXXXXXXXXXXXXXXXXoooooooooooooooooooooooooooooooooooooooooooooooooooooooooooooooo................................................................................................                                ",
"                                ................................XXXXXXXXXXXXXXXXXXXXXXXXXXXXXXXXXXXXXXXXXXXXXXXXXXXXXXXXXXXXXXXXoooooooooooooooooooooooooooooooooooooooooooooooooooooooooooooooo................................................................XXXXXXXXXXXXXXXXXXXXXXXXXXXXXXXXXXXXXXXXXXXXXXXXXXXXXXXXXXXXXXXXoooooooooooooooooooooooooooooooooooooooooooooooooooooooooooooooo................................................................................................                                ",
"                                ................................XXXXXXXXXXXXXXXXXXXXXXXXXXXXXXXXXXXXXXXXXXXXXXXXXXXXXXXXXXXXXXXXoooooooooooooooooooooooooooooooooooooooooooooooooooooooooooooooo................................................................XXXXXXXXXXXXXXXXXXXXXXXXXXXXXXXXXXXXXXXXXXXXXXXXXXXXXXXXXXXXXXXXoooooooooooooooooooooooooooooooooooooooooooooooooooooooooooooooo................................................................................................                                ",
"                                ................................XXXXXXXXXXXXXXXXXXXXXXXXXXXXXXXXXXXXXXXXXXXXXXXXXXXXXXXXXXXXXXXXoooooooooooooooooooooooooooooooooooooooooooooooooooooooooooooooo................................................................XXXXXXXXXXXXXXXXXXXXXXXXXXXXXXXXXXXXXXXXXXXXXXXXXXXXXXXXXXXXXXXXoooooooooooooooooooooooooooooooooooooooooooooooooooooooooooooooo................................................................................................                                ",
"                                ................................XXXXXXXXXXXXXXXXXXXXXXXXXXXXXXXXXXXXXXXXXXXXXXXXXXXXXXXXXXXXXXXXoooooooooooooooooooooooooooooooooooooooooooooooooooooooooooooooo................................................................XXXXXXXXXXXXXXXXXXXXXXXXXXXXXXXXXXXXXXXXXXXXXXXXXXXXXXXXXXXXXXXXoooooooooooooooooooooooooooooooooooooooooooooooooooooooooooooooo................................................................................................                                ",
"                                ................................XXXXXXXXXXXXXXXXXXXXXXXXXXXXXXXXXXXXXXXXXXXXXXXXXXXXXXXXXXXXXXXXoooooooooooooooooooooooooooooooooooooooooooooooooooooooooooooooo................................................................XXXXXXXXXXXXXXXXXXXXXXXXXXXXXXXXXXXXXXXXXXXXXXXXXXXXXXXXXXXXXXXXoooooooooooooooooooooooooooooooooooooooooooooooooooooooooooooooo................................................................................................                                ",
"                                ................................XXXXXXXXXXXXXXXXXXXXXXXXXXXXXXXXXXXXXXXXXXXXXXXXXXXXXXXXXXXXXXXXoooooooooooooooooooooooooooooooooooooooooooooooooooooooooooooooo................................................................XXXXXXXXXXXXXXXXXXXXXXXXXXXXXXXXXXXXXXXXXXXXXXXXXXXXXXXXXXXXXXXXoooooooooooooooooooooooooooooooooooooooooooooooooooooooooooooooo................................................................................................                                ",
"                                ................................XXXXXXXXXXXXXXXXXXXXXXXXXXXXXXXXXXXXXXXXXXXXXXXXXXXXXXXXXXXXXXXXoooooooooooooooooooooooooooooooooooooooooooooooooooooooooooooooo................................................................XXXXXXXXXXXXXXXXXXXXXXXXXXXXXXXXXXXXXXXXXXXXXXXXXXXXXXXXXXXXXXXXoooooooooooooooooooooooooooooooooooooooooooooooooooooooooooooooo................................................................................................                                ",
"                                ................................XXXXXXXXXXXXXXXXXXXXXXXXXXXXXXXXXXXXXXXXXXXXXXXXXXXXXXXXXXXXXXXXoooooooooooooooooooooooooooooooooooooooooooooooooooooooooooooooo................................................................XXXXXXXXXXXXXXXXXXXXXXXXXXXXXXXXXXXXXXXXXXXXXXXXXXXXXXXXXXXXXXXXoooooooooooooooooooooooooooooooooooooooooooooooooooooooooooooooo................................................................................................                                ",
"                                ................................XXXXXXXXXXXXXXXXXXXXXXXXXXXXXXXXXXXXXXXXXXXXXXXXXXXXXXXXXXXXXXXXoooooooooooooooooooooooooooooooooooooooooooooooooooooooooooooooo................................................................XXXXXXXXXXXXXXXXXXXXXXXXXXXXXXXXXXXXXXXXXXXXXXXXXXXXXXXXXXXXXXXXoooooooooooooooooooooooooooooooooooooooooooooooooooooooooooooooo................................................................................................                                ",
"                                ................................XXXXXXXXXXXXXXXXXXXXXXXXXXXXXXXXXXXXXXXXXXXXXXXXXXXXXXXXXXXXXXXXoooooooooooooooooooooooooooooooooooooooooooooooooooooooooooooooo................................................................XXXXXXXXXXXXXXXXXXXXXXXXXXXXXXXXXXXXXXXXXXXXXXXXXXXXXXXXXXXXXXXXoooooooooooooooooooooooooooooooooooooooooooooooooooooooooooooooo................................................................................................                                ",
"                                ................................XXXXXXXXXXXXXXXXXXXXXXXXXXXXXXXXXXXXXXXXXXXXXXXXXXXXXXXXXXXXXXXXoooooooooooooooooooooooooooooooooooooooooooooooooooooooooooooooo................................................................XXXXXXXXXXXXXXXXXXXXXXXXXXXXXXXXXXXXXXXXXXXXXXXXXXXXXXXXXXXXXXXXoooooooooooooooooooooooooooooooooooooooooooooooooooooooooooooooo................................................................................................                                ",
"                                ................................XXXXXXXXXXXXXXXXXXXXXXXXXXXXXXXXXXXXXXXXXXXXXXXXXXXXXXXXXXXXXXXXoooooooooooooooooooooooooooooooooooooooooooooooooooooooooooooooo................................................................XXXXXXXXXXXXXXXXXXXXXXXXXXXXXXXXXXXXXXXXXXXXXXXXXXXXXXXXXXXXXXXXoooooooooooooooooooooooooooooooooooooooooooooooooooooooooooooooo................................................................................................                                ",
"                                ................................................................oooooooooooooooooooooooooooooooooooooooooooooooooooooooooooooooo................................................................................................................................oooooooooooooooooooooooooooooooooooooooooooooooooooooooooooooooo................................................................................................................................                                ",
"                                ................................................................oooooooooooooooooooooooooooooooooooooooooooooooooooooooooooooooo................................................................................................................................oooooooooooooooooooooooooooooooooooooooooooooooooooooooooooooooo................................................................................................................................                                ",
"                                ................................................................oooooooooooooooooooooooooooooooooooooooooooooooooooooooooooooooo................................................................................................................................oooooooooooooooooooooooooooooooooooooooooooooooooooooooooooooooo................................................................................................................................                                ",
"                                ................................................................oooooooooooooooooooooooooooooooooooooooooooooooooooooooooooooooo................................................................................................................................oooooooooooooooooooooooooooooooooooooooooooooooooooooooooooooooo................................................................................................................................                                ",
"                                ................................................................oooooooooooooooooooooooooooooooooooooooooooooooooooooooooooooooo................................................................................................................................oooooooooooooooooooooooooooooooooooooooooooooooooooooooooooooooo................................................................................................................................                                ",
"                                ................................................................oooooooooooooooooooooooooooooooooooooooooooooooooooooooooooooooo................................................................................................................................oooooooooooooooooooooooooooooooooooooooooooooooooooooooooooooooo................................................................................................................................                                ",
"                                ................................................................oooooooooooooooooooooooooooooooooooooooooooooooooooooooooooooooo................................................................................................................................oooooooooooooooooooooooooooooooooooooooooooooooooooooooooooooooo................................................................................................................................                                ",
"                                ................................................................oooooooooooooooooooooooooooooooooooooooooooooooooooooooooooooooo................................................................................................................................oooooooooooooooooooooooooooooooooooooooooooooooooooooooooooooooo................................................................................................................................                                ",
"                                ................................................................oooooooooooooooooooooooooooooooooooooooooooooooooooooooooooooooo................................................................................................................................oooooooooooooooooooooooooooooooooooooooooooooooooooooooooooooooo................................................................................................................................                                ",
"                                ................................................................oooooooooooooooooooooooooooooooooooooooooooooooooooooooooooooooo................................................................................................................................oooooooooooooooooooooooooooooooooooooooooooooooooooooooooooooooo................................................................................................................................                                ",
"                                ................................................................oooooooooooooooooooooooooooooooooooooooooooooooooooooooooooooooo................................................................................................................................oooooooooooooooooooooooooooooooooooooooooooooooooooooooooooooooo................................................................................................................................                                ",
"                                ................................................................oooooooooooooooooooooooooooooooooooooooooooooooooooooooooooooooo................................................................................................................................oooooooooooooooooooooooooooooooooooooooooooooooooooooooooooooooo................................................................................................................................                                ",
"                                ................................................................oooooooooooooooooooooooooooooooooooooooooooooooooooooooooooooooo................................................................................................................................oooooooooooooooooooooooooooooooooooooooooooooooooooooooooooooooo................................................................................................................................                                ",
"                                ................................................................oooooooooooooooooooooooooooooooooooooooooooooooooooooooooooooooo................................................................................................................................oooooooooooooooooooooooooooooooooooooooooooooooooooooooooooooooo................................................................................................................................                                ",
"                                ................................................................oooooooooooooooooooooooooooooooooooooooooooooooooooooooooooooooo................................................................................................................................oooooooooooooooooooooooooooooooooooooooooooooooooooooooooooooooo................................................................................................................................                                ",
"                                ................................................................oooooooooooooooooooooooooooooooooooooooooooooooooooooooooooooooo................................................................................................................................oooooooooooooooooooooooooooooooooooooooooooooooooooooooooooooooo................................................................................................................................                                ",
"                                ................................................................oooooooooooooooooooooooooooooooooooooooooooooooooooooooooooooooo................................................................................................................................oooooooooooooooooooooooooooooooooooooooooooooooooooooooooooooooo................................................................................................................................                                ",
"                                ................................................................oooooooooooooooooooooooooooooooooooooooooooooooooooooooooooooooo................................................................................................................................oooooooooooooooooooooooooooooooooooooooooooooooooooooooooooooooo................................................................................................................................                                ",
"                                ................................................................oooooooooooooooooooooooooooooooooooooooooooooooooooooooooooooooo................................................................................................................................oooooooooooooooooooooooooooooooooooooooooooooooooooooooooooooooo................................................................................................................................                                ",
"                                ................................................................oooooooooooooooooooooooooooooooooooooooooooooooooooooooooooooooo................................................................................................................................oooooooooooooooooooooooooooooooooooooooooooooooooooooooooooooooo................................................................................................................................                                ",
"                                ................................................................oooooooooooooooooooooooooooooooooooooooooooooooooooooooooooooooo................................................................................................................................oooooooooooooooooooooooooooooooooooooooooooooooooooooooooooooooo................................................................................................................................                                ",
"                                ................................................................oooooooooooooooooooooooooooooooooooooooooooooooooooooooooooooooo................................................................................................................................oooooooooooooooooooooooooooooooooooooooooooooooooooooooooooooooo................................................................................................................................                                ",
"                                ................................................................oooooooooooooooooooooooooooooooooooooooooooooooooooooooooooooooo................................................................................................................................oooooooooooooooooooooooooooooooooooooooooooooooooooooooooooooooo................................................................................................................................                                ",
"                                ................................................................oooooooooooooooooooooooooooooooooooooooooooooooooooooooooooooooo................................................................................................................................oooooooooooooooooooooooooooooooooooooooooooooooooooooooooooooooo................................................................................................................................                                ",
"                                ................................................................oooooooooooooooooooooooooooooooooooooooooooooooooooooooooooooooo................................................................................................................................oooooooooooooooooooooooooooooooooooooooooooooooooooooooooooooooo................................................................................................................................                                ",
"                                ................................................................oooooooooooooooooooooooooooooooooooooooooooooooooooooooooooooooo................................................................................................................................oooooooooooooooooooooooooooooooooooooooooooooooooooooooooooooooo................................................................................................................................                                ",
"                                ................................................................oooooooooooooooooooooooooooooooooooooooooooooooooooooooooooooooo................................................................................................................................oooooooooooooooooooooooooooooooooooooooooooooooooooooooooooooooo................................................................................................................................                                ",
"                                ................................................................oooooooooooooooooooooooooooooooooooooooooooooooooooooooooooooooo................................................................................................................................oooooooooooooooooooooooooooooooooooooooooooooooooooooooooooooooo................................................................................................................................                                ",
"                                ................................................................oooooooooooooooooooooooooooooooooooooooooooooooooooooooooooooooo................................................................................................................................oooooooooooooooooooooooooooooooooooooooooooooooooooooooooooooooo................................................................................................................................                                ",
"                                ................................................................oooooooooooooooooooooooooooooooooooooooooooooooooooooooooooooooo................................................................................................................................oooooooooooooooooooooooooooooooooooooooooooooooooooooooooooooooo................................................................................................................................                                ",
"                                ................................................................oooooooooooooooooooooooooooooooooooooooooooooooooooooooooooooooo................................................................................................................................oooooooooooooooooooooooooooooooooooooooooooooooooooooooooooooooo................................................................................................................................                                ",
"                                ................................................................oooooooooooooooooooooooooooooooooooooooooooooooooooooooooooooooo................................................................................................................................oooooooooooooooooooooooooooooooooooooooooooooooooooooooooooooooo................................................................................................................................                                ",
"                                ................................................................................................................................................................................................................................................................................................................................................................................................................................................................                                ",
"                                ................................................................................................................................................................................................................................................................................................................................................................................................................................................................                                ",
"                                ................................................................................................................................................................................................................................................................................................................................................................................................................................................................                                ",
"                                ................................................................................................................................................................................................................................................................................................................................................................................................................................................................                                ",
"                                ................................................................................................................................................................................................................................................................................................................................................................................................................................................................                                ",
"                                ................................................................................................................................................................................................................................................................................................................................................................................................................................................................                                ",
"                                ................................................................................................................................................................................................................................................................................................................................................................................................................................................................                                ",
"                                ................................................................................................................................................................................................................................................................................................................................................................................................................................................................                                ",
"                                ................................................................................................................................................................................................................................................................................................................................................................................................................................................................                                ",
"                                ................................................................................................................................................................................................................................................................................................................................................................................................................................................................                                ",
"                                ................................................................................................................................................................................................................................................................................................................................................................................................................................................................                                ",
"                                ................................................................................................................................................................................................................................................................................................................................................................................................................................................................                                ",
"                                ................................................................................................................................................................................................................................................................................................................................................................................................................................................................                                ",
"                                ................................................................................................................................................................................................................................................................................................................................................................................................................................................................                                ",
"                                ................................................................................................................................................................................................................................................................................................................................................................................................................................................................                                ",
"                                ................................................................................................................................................................................................................................................................................................................................................................................................................................................................                                ",
"                                ................................................................................................................................................................................................................................................................................................................................................................................................................................................................                                ",
"                                ................................................................................................................................................................................................................................................................................................................................................................................................................................................................                                ",
"                                ................................................................................................................................................................................................................................................................................................................................................................................................................................................................                                ",
"                                ................................................................................................................................................................................................................................................................................................................................................................................................................................................................                                ",
"                                ................................................................................................................................................................................................................................................................................................................................................................................................................................................................                                ",
"                                ................................................................................................................................................................................................................................................................................................................................................................................................................................................................                                ",
"                                ................................................................................................................................................................................................................................................................................................................................................................................................................................................................                                ",
"                                ................................................................................................................................................................................................................................................................................................................................................................................................................................................................                                ",
"                                ................................................................................................................................................................................................................................................................................................................................................................................................................................................................                                ",
"                                ................................................................................................................................................................................................................................................................................................................................................................................................................................................................                                ",
"                                ................................................................................................................................................................................................................................................................................................................................................................................................................................................................                                ",
"                                ................................................................................................................................................................................................................................................................................................................................................................................................................................................................                                ",
"                                ................................................................................................................................................................................................................................................................................................................................................................................................................................................................                                ",
"                                ................................................................................................................................................................................................................................................................................................................................................................................................................................................................                                ",
"                                ................................................................................................................................................................................................................................................................................................................................................................................................................................................................                                ",
"                                ................................................................................................................................................................................................................................................................................................................................................................................................................................................................                                ",
"                                ................................................................................................................................................................................................................................................................................................................................................................................................................................................................                                ",
"                                ................................................................................................................................................................................................................................................................................................................................................................................................................................................................                                ",
"                                ................................................................................................................................................................................................................................................................................................................................................................................................................................................................                                ",
"                                ................................................................................................................................................................................................................................................................................................................................................................................................................................................................                                ",
"                                ................................................................................................................................................................................................................................................................................................................................................................................................................................................................                                ",
"                                ................................................................................................................................................................................................................................................................................................................................................................................................................................................................                                ",
"                                ................................................................................................................................................................................................................................................................................................................................................................................................................................................................                                ",
"                                ................................................................................................................................................................................................................................................................................................................................................................................................................................................................                                ",
"                                ................................................................................................................................................................................................................................................................................................................................................................................................................................................................                                ",
"                                ................................................................................................................................................................................................................................................................................................................................................................................................................................................................                                ",
"                                ................................................................................................................................................................................................................................................................................................................................................................................................................................................................                                ",
"                                ................................................................................................................................................................................................................................................................................................................................................................................................................................................................                                ",
"                                ................................................................................................................................................................................................................................................................................................................................................................................................................................................................                                ",
"                                ................................................................................................................................................................................................................................................................................................................................................................................................................................................................                                ",
"                                ................................................................................................................................................................................................................................................................................................................................................................................................................................................................                                ",
"                                ................................................................................................................................................................................................................................................................................................................................................................................................................................................................                                ",
"                                ................................................................................................................................................................................................................................................................................................................................................................................................................................................................                                ",
"                                ................................................................................................................................................................................................................................................................................................................................................................................................................................................................                                ",
"                                ................................................................................................................................................................................................................................................................................................................................................................................................................................................................                                ",
"                                ................................................................................................................................................................................................................................................................................................................................................................................................................................................................                                ",
"                                ................................................................................................................................................................................................................................................................................................................................................................................................................................................................                                ",
"                                ................................................................................................................................................................................................................................................................................................................................................................................................................................................................                                ",
"                                ................................................................................................................................................................................................................................................................................................................................................................................................................................................................                                ",
"                                ................................................................................................................................................................................................................................................................................................................................................................................................................................................................                                ",
"                                ................................................................................................................................................................................................................................................................................................................................................................................................................................................................                                ",
"                                ................................................................................................................................................................................................................................................................................................................................................................................................................................................................                                ",
"                                ................................................................................................................................................................................................................................................................................................................................................................................................................................................................                                ",
"                                ................................................................................................................................................................................................................................................................................................................................................................................................................................................................                                ",
"                                ................................................................................................................................................................................................................................................................................................................................................................................................................................................................                                ",
"                                ................................................................................................................................................................................................................................................................................................................................................................................................................................................................                                ",
"                                ................................................................................................................................................................................................................................................................................................................................................................................................................................................................                                ",
"                                ................................................................................................................................................................................................................................................................................................................................................................................................................................................................                                ",
"                                ................................................................................................................................................................................................................................................................................................................................................................................................................................................................                                ",
"                                ................................................................................................................................................................................................................................................................................................................................................................................................................................................................                                ",
"                                ................................................................................................................................................................................................................................................................................................................................................................................................................................................................                                ",
"                                ................................................................................................................................................................................................................................................................................................................................................................................................................................................................                                ",
"                                ................................................................................................................................................................................................................................................................................................................................................................................................................................................................                                ",
"                                ................................................................................................................................................................................................................................................................................................................................................................................................................................................................                                ",
"                                ................................................................................................................................................................................................................................................................................................................................................................................................................................................................                                ",
"                                ................................................................................................................................................................................................................................................................................................................................................................................................................................................................                                ",
"                                ................................................................................................................................................................................................................................................................................................................................................................................................................................................................                                ",
"                                ................................................................................................................................................................................................................................................................................................................................................................................................................................................................                                ",
"                                ................................................................................................................................................................................................................................................................................................................................................................................................................................................................                                ",
"                                ................................................................................................................................................................................................................................................................................................................................................................................................................................................................                                ",
"                                ................................................................................................................................................................................................................................................................................................................................................................................................................................................................                                ",
"                                ................................................................................................................................................................................................................................................................................................................................................................................................................................................................                                ",
"                                ................................................................................................................................................................................................................................................................................................................................................................................................................................................................                                ",
"                                ................................................................................................................................................................................................................................................................................................................................................................................................................................................................                                ",
"                                ................................................................................................................................................................................................................................................................................................................................................................................................................................................................                                ",
"                                ................................................................................................................................................................................................................................................................................................................................................................................................................................................................                                ",
"                                ................................................................................................................................................................................................................................................................................................................................................................................................................................................................                                ",
"                                ................................................................................................................................................................................................................................................................................................................................................................................................................................................................                                ",
"                                ................................................................................................................................................................................................................................................................................................................................................................................................................................................................                                ",
"                                ................................................................................................................................................................................................................................................................................................................................................................................................................................................................                                ",
"                                ................................................................................................................................................................................................................................................................................................................................................................................................................................................................                                ",
"                                ................................................................................................................................................................................................................................................................................................................................................................................................................................................................                                ",
"                                ................................................................................................................................................................................................................................................................................................................................................................................................................................................................                                ",
"                                ................................................................................................................................................................................................................................................................................................................................................................................................................................................................                                ",
"                                ................................................................................................................................................................................................................................................................................................................................................................................................................................................................                                ",
"                                ................................................................................................................................................................................................................................................................................................................................................................................................................................................................                                ",
"                                ................................................................................................................................................................................................................................................................................................................................................................................................................................................................                                ",
"                                ................................................................................................................................................................................................................................................................................................................................................................................................................................................................                                ",
"                                ................................................................................................................................................................................................................................................................................................................................................................................................................................................................                                ",
"                                ................................................................................................................................................................................................................................................................................................................................................................................................................................................................                                ",
"                                ................................................................................................................................................................................................................................................................................................................................................................................................................................................................                                ",
"                                ................................................................................................................................................................................................................................................................................................................................................................................................................................................................                                ",
"                                ................................................................................................................................................................................................................................................................................................................................................................................................................................................................                                ",
"                                ................................................................................................................................................................................................................................................................................................................................................................................................................................................................                                ",
"                                ................................................................................................................................................................................................................................................................................................................................................................................................................................................................                                ",
"                                ................................................................................................................................................................................................................................................................................................................................................................................................................................................................                                ",
"                                ................................................................................................................................................................................................................................................................................................................................................................................................................................................................                                ",
"                                ................................................................................................................................................................................................................................................................................................................................................................................................................................................................                                ",
"                                ................................................................................................................................................................................................................................................................................................................................................................................................................................................................                                ",
"                                ................................................................................................................................................................................................................................................................................................................................................................................................................................................................                                ",
"                                ................................................................................................................................................................................................................................................................................................................................................................................................................................................................                                ",
"                                ................................................................................................................................................................................................................................................................................................................................................................................................................................................................                                ",
"                                ................................................................................................................................................................................................................................................................................................................................................................................................................................................................                                ",
"                                ................................................................................................................................................................................................................................................................................................................................................................................................................................................................                                ",
"                                ................................................................................................................................................................................................................................................................................................................................................................................................................................................................                                ",
"                                ................................................................................................................................................................................................................................................................................................................................................................................................................................................................                                ",
"                                ................................................................................................................................................................................................................................................................................................................................................................................................................................................................                                ",
"                                ................................................................................................................................................................................................................................................................................................................................................................................................................................................................                                ",
"                                ................................................................................................................................................................................................................................................................................................................................................................................................................................................................                                ",
"                                ................................................................................................................................................................................................................................................................................................................................................................................................................................................................                                ",
"                                ................................................................................................................................................................................................................................................................................................................................................................................................................................................................                                ",
"                                ................................................................................................................................................................................................................................................................................................................................................................................................................................................................                                ",
"                                ................................................................................................................................................................................................................................................................................................................................................................................................................................................................                                ",
"                                ................................................................................................................................................................................................................................................................................................................................................................................................................................................................                                ",
"                                ................................................................................................................................................................................................................................................................................................................................................................................................................................................................                                ",
"                                ................................................................................................................................................................................................................................................................................................................................................................................................................................................................                                ",
"                                ................................................................................................................................................................................................................................................................................................................................................................................................................................................................                                ",
"                                ................................................................................................................................................................................................................................................................................................................................................................................................................................................................                                ",
"                                ................................................................................................................................................................................................................................................................................................................................................................................................................................................................                                ",
"                                ................................................................................................................................................................................................................................................................................................................................................................................................................................................................                                ",
"                                ................................................................................................................................................................................................................................................................................................................................................................................................................................................................                                ",
"                                ................................................................................................................................................................................................................................................................................................................................................................................................................................................................                                ",
"                                ................................................................................................................................                                ................................................................................................................................                                ................................................................................................................................                                ",
"                                ................................................................................................................................                                ................................................................................................................................                                ................................................................................................................................                                ",
"                                ................................................................................................................................                                ................................................................................................................................                                ................................................................................................................................                                ",
"                                ................................................................................................................................                                ................................................................................................................................                                ................................................................................................................................                                ",
"                                ................................................................................................................................                                ................................................................................................................................                                ................................................................................................................................                                ",
"                                ................................................................................................................................                                ................................................................................................................................                                ................................................................................................................................                                ",
"                                ................................................................................................................................                                ................................................................................................................................                                ................................................................................................................................                                ",
"                                ................................................................................................................................                                ................................................................................................................................                                ................................................................................................................................                                ",
"                                ................................................................................................................................                                ................................................................................................................................                                ................................................................................................................................                                ",
"                                ................................................................................................................................                                ................................................................................................................................                                ................................................................................................................................                                ",
"                                ................................................................................................................................                                ................................................................................................................................                                ................................................................................................................................                                ",
"                                ................................................................................................................................                                ................................................................................................................................                                ................................................................................................................................                                ",
"                                ................................................................................................................................                                ................................................................................................................................                                ................................................................................................................................                                ",
"                                ................................................................................................................................                                ................................................................................................................................                                ................................................................................................................................                                ",
"                                ................................................................................................................................                                ................................................................................................................................                                ................................................................................................................................                                ",
"                                ................................................................................................................................                                ................................................................................................................................                                ................................................................................................................................                                ",
"                                ................................................................................................................................                                ................................................................................................................................                                ................................................................................................................................                                ",
"                                ................................................................................................................................                                ................................................................................................................................                                ................................................................................................................................                                ",
"                                ................................................................................................................................                                ................................................................................................................................                                ................................................................................................................................                                ",
"                                ................................................................................................................................                                ................................................................................................................................                                ................................................................................................................................                                ",
"                                ................................................................................................................................                                ................................................................................................................................                                ................................................................................................................................                                ",
"                                ................................................................................................................................                                ................................................................................................................................                                ................................................................................................................................                                ",
"                                ................................................................................................................................                                ................................................................................................................................                                ................................................................................................................................                                ",
"                                ................................................................................................................................                                ................................................................................................................................                                ................................................................................................................................                                ",
"                                ................................................................................................................................                                ................................................................................................................................                                ................................................................................................................................                                ",
"                                ................................................................................................................................                                ................................................................................................................................                                ................................................................................................................................                                ",
"                                ................................................................................................................................                                ................................................................................................................................                                ................................................................................................................................                                ",
"                                ................................................................................................................................                                ................................................................................................................................                                ................................................................................................................................                                ",
"                                ................................................................................................................................                                ................................................................................................................................                                ................................................................................................................................                                ",
"                                ................................................................................................................................                                ................................................................................................................................                                ................................................................................................................................                                ",
"                                ................................................................................................................................                                ................................................................................................................................                                ................................................................................................................................                                ",
"                                ................................................................................................................................                                ................................................................................................................................                                ................................................................................................................................                                ",
"                                                                ................................................................                                                                                                ................................................................                                                                                                ................................................................                                                                ",
"                                                                ................................................................                                                                                                ................................................................                                                                                                ................................................................                                                                ",
"                                                                ................................................................                                                                                                ................................................................                                                                                                ................................................................                                                                ",
"                                                                ................................................................                                                                                                ................................................................                                                                                                ................................................................                                                                ",
"                                                                ................................................................                                                                                                ................................................................                                                                                                ................................................................                                                                ",
"                                                                ................................................................                                                                                                ................................................................                                                                                                ................................................................                                                                ",
"                                                                ................................................................                                                                                                ................................................................                                                                                                ................................................................                                                                ",
"                                                                ................................................................                                                                                                ................................................................                                                                                                ................................................................                                                                ",
"                                                                ................................................................                                                                                                ................................................................                                                                                                ................................................................                                                                ",
"                                                                ................................................................                                                                                                ................................................................                                                                                                ................................................................                                                                ",
"                                                                ................................................................                                                                                                ................................................................                                                                                                ................................................................                                                                ",
"                                                                ................................................................                                                                                                ................................................................                                                                                                ................................................................                                                                ",
"                                                                ................................................................                                                                                                ................................................................                                                                                                ................................................................                                                                ",
"                                                                ................................................................                                                                                                ................................................................                                                                                                ................................................................                                                                ",
"                                                                ................................................................                                                                                                ................................................................                                                                                                ................................................................                                                                ",
"                                                                ................................................................                                                                                                ................................................................                                                                                                ................................................................                                                                ",
"                                                                ................................................................                                                                                                ................................................................                                                                                                ................................................................                                                                ",
"                                                                ................................................................                                                                                                ................................................................                                                                                                ................................................................                                                                ",
"                                                                ................................................................                                                                                                ................................................................                                                                                                ................................................................                                                                ",
"                                                                ................................................................                                                                                                ................................................................                                                                                                ................................................................                                                                ",
"                                                                ................................................................                                                                                                ................................................................                                                                                                ................................................................                                                                ",
"                                                                ................................................................                                                                                                ................................................................                                                                                                ................................................................                                                                ",
"                                                                ................................................................                                                                                                ................................................................                                                                                                ................................................................                                                                ",
"                                                                ................................................................                                                                                                ................................................................                                                                                                ................................................................                                                                ",
"                                                                ................................................................                                                                                                ................................................................                                                                                                ................................................................                                                                ",
"                                                                ................................................................                                                                                                ................................................................                                                                                                ................................................................                                                                ",
"                                                                ................................................................                                                                                                ................................................................                                                                                                ................................................................                                                                ",
"                                                                ................................................................                                                                                                ................................................................                                                                                                ................................................................                                                                ",
"                                                                ................................................................                                                                                                ................................................................                                                                                                ................................................................                                                                ",
"                                                                ................................................................                                                                                                ................................................................                                                                                                ................................................................                                                                ",
"                                                                ................................................................                                                                                                ................................................................                                                                                                ................................................................                                                                ",
"                                                                ................................................................                                                                                                ................................................................                                                                                                ................................................................                                                                ",
"                                                                                                                                                                                                                                                                                                                                                                                                                                                                                                                                ",
"                                                                                                                                                                                                                                                                                                                                                                                                                                                                                                                                ",
"                                                                                                                                                                                                                                                                                                                                                                                                                                                                                                                                ",
"                                                                                                                                                                                                                                                                                                                                                                                                                                                                                                                                ",
"                                                                                                                                                                                                                                                                                                                                                                                                                                                                                                                                ",
"                                                                                                                                                                                                                                                                                                                                                                                                                                                                                                                                ",
"                                                                                                                                                                                                                                                                                                                                                                                                                                                                                                                                ",
"                                                                                                                                                                                                                                                                                                                                                                                                                                                                                                                                ",
"                                                                                                                                                                                                                                                                                                                                                                                                                                                                                                                                ",
"                                                                                                                                                                                                                                                                                                                                                                                                                                                                                                                                ",
"                                                                                                                                                                                                                                                                                                                                                                                                                                                                                                                                ",
"                                                                                                                                                                                                                                                                                                                                                                                                                                                                                                                                ",
"                                                                                                                                                                                                                                                                                                                                                                                                                                                                                                                                ",
"                                                                                                                                                                                                                                                                                                                                                                                                                                                                                                                                ",
"                                                                                                                                                                                                                                                                                                                                                                                                                                                                                                                                ",
"                                                                                                                                                                                                                                                                                                                                                                                                                                                                                                                                ",
"                                                                                                                                                                                                                                                                                                                                                                                                                                                                                                                                ",
"                                                                                                                                                                                                                                                                                                                                                                                                                                                                                                                                ",
"                                                                                                                                                                                                                                                                                                                                                                                                                                                                                                                                ",
"                                                                                                                                                                                                                                                                                                                                                                                                                                                                                                                                ",
"                                                                                                                                                                                                                                                                                                                                                                                                                                                                                                                                ",
"                                                                                                                                                                                                                                                                                                                                                                                                                                                                                                                                ",
"                                                                                                                                                                                                                                                                                                                                                                                                                                                                                                                                ",
"                                                                                                                                                                                                                                                                                                                                                                                                                                                                                                                                ",
"                                                                                                                                                                                                                                                                                                                                                                                                                                                                                                                                ",
"                                                                                                                                                                                                                                                                                                                                                                                                                                                                                                                                ",
"                                                                                                                                                                                                                                                                                                                                                                                                                                                                                                                                ",
"                                                                                                                                                                                                                                                                                                                                                                                                                                                                                                                                ",
"                                                                                                                                                                                                                                                                                                                                                                                                                                                                                                                                ",
"                                                                                                                                                                                                                                                                                                                                                                                                                                                                                                                                ",
"                                                                                                                                                                                                                                                                                                                                                                                                                                                                                                                                ",
"                                                                                                                                                                                                                                                                                                                                                                                                                                                                                                                                "
};
